!!!!SEGMENT: pl-kc--40102-iii-1-saf--001-001_zielenski-mikolaj--offertoria-totius-anni-in-nativitate-domini-ad-primam-missam-laetentur-caeli.krn
!!!cenid: 16xx:1480
!!!COM: Zieleński, Mikołaj
!!!COM-rismid: pe30013481
!!!CDT:
!!!CNT: Polish
!!!GTL: Offertoria totius anni
!!!OTL: In Nativitate Domini ad Primam Missam/Laetentur caeli
!!!OMV: 001
!!!PDT: 1611
!!!AGN:
!!!SMS-siglum: PL-Kc
!!!SMS-shelfmark: 40102 III/1 Saf.
!!!SMS-shelfwork: 001-001 G
!!!SMS-variant:
!!!SMS-altvar:
!!!NIFC-rismid: 990069886
!!!URL-scan: https://cyfrowe.mnk.pl/dlibra/publication/24235/edition/23926/content?ref=desc
!!!ONB-nifc: UWAGA: str. 5-6. Uwaga: W xml metrum 2/1 do źródłowego C| i odpowiednio 3/1 do 3/2
!!!key: F
**kern	**kern	**kern	**kern
*part4	*part3	*part2	*part1
*staff4	*staff3	*staff2	*staff1
*group1	*group1	*group1	*group1
*I""Organo	*I""Organo	*I""Organo	*I""Organo
*I''org	*I''org	*I''org	*I''org
*Iorgan	*Iorgan	*Iorgan	*Iorgan
*ICklav	*ICklav	*ICklav	*ICklav
*clefF4	*clefC1	*clefF4	*clefC1
*k[b-]	*k[b-]	*k[b-]	*k[b-]
*F:	*F:	*F:	*F:
*M2/1	*M2/1	*M2/1	*M2/1
*met(C|)	*met(C|)	*met(C|)	*met(C|)
=1	=1	=1	=1
!	!LO:TX:a:t=Secundus Chorus.	!LO:TX:a:t=Laetentur caeli.	!LO:TX:a:t=In Natiuitate Domini ad Primam Miſsam. A S.
1r	1r	1F	2r
.	.	.	2cc\
1FF	2r	4.F\	4.a\
.	.	8F\	8a\
.	2cc\	2F\	2f/
=2-	=2-	=2-	=2-
4.FF/	4.a\	1.F	2c/
8FF/	8a\	.	.
2FF/	2f/	.	4r
.	.	.	4cc\
2FF/	2c/	.	4.a\
.	.	.	8a\
2FF/	4r	2C/	2f/
.	4cc\	.	.
=3	=3	=3	=3
4.C/	4.a\	4.FF/	2cc\
8C/	8a\	8FF/	.
2C/	2f/	2FF/	4r
.	.	.	4ff\
2.BB-/	2f/	1BB-	4.dd\
.	.	.	8dd\
.	4r	.	2b-\
4BB-/	4ff\	.	.
=4-	=4-	=4-	=4-
4.BB-/	4.dd\	2r	2b-\
8BB-/	8dd\	.	.
2BB-/	2b-\	2F\	4r
.	.	.	4ff\
2BB-/	1b-	4.BB-/	4.dd\
.	.	8BB-/	8dd\
2BB-/	.	2B-\	2b-\
=5	=5	=5	=5
4.BB-/	4r	4B-\	4b-\
.	4dd\	4F\	4ff\
8BB-/	.	.	.
2BB-/	4.b-\	4.BB-/	4.dd\
.	8b-\	8BB-/	8dd\
1BB-	2f/	2F\	2b-\
.	2.b-\	2.BB-/	2.dd\
=6-	=6-	=6-	=6-
1GG	.	.	.
.	4b-\	4GG/	4dd\
.	4.g\	4.GG/	4.b-\
.	8g\	8GG/	8b-\
1GG	2dd\	2GG/	2g/
!	!LO:N:acc=#	!	!
.	2bn\	4GG/	4g/
.	.	4GG/	4dd\
=7	=7	=7	=7
!	!	!	!LO:N:acc=#
00r	00r	4.G\	4.bn\
.	.	8G\	8b\
.	.	2C/	2cc\
.	.	4GG/	4dd\
.	.	2G\	2dd\
.	.	4E-X\	4ee-X\
=8-	=8-	=8-	=8-
.	.	4F\	4cc\
.	.	4D/	4dd\
!	!	!	!LO:N:acc=#
.	.	2G\	2bn\
.	.	4E\	4cc\
.	.	2F\	2a\
.	.	4D/	4b\
*custos:C	*custos:g	*custos:E	*custos:g
!!LO:LB:g=original
=9	=9	=9	=9
0r	0r	2E\	2g/
.	.	2C/	2a\
*	*	*lig	*
!	!	!	!LO:N:acc=#
.	.	1G	4bn\
.	.	.	4g\
.	.	.	2.cc\
=10-	=10-	=10-	=10-
1r	1r	1GG	.
!	!	!	!LO:N:acc=#
.	.	.	8bn\
.	.	.	8a\
.	.	.	2b\
*	*	*Xlig	*
2r	2r	1C	1cc
2C/	2g/	.	.
=11	=11	=11	=11
4.C/	4.e/	00r	00r
8D/	8e/	.	.
2C/	2c/	.	.
4C/	2g/	.	.
4C/	.	.	.
4.AA/	2r	.	.
8AA/	.	.	.
=12-	=12-	=12-	=12-
2FF/	4r	.	.
.	4cc\	.	.
2.F\	4.a\	.	.
.	8a\	.	.
.	2f/	.	.
4F\	.	.	.
4.D/	2f/	.	.
8D/	.	.	.
=13	=13	=13	=13
4BB-/	1b-	00r	00r
4C/	.	.	.
2D/	.	.	.
4BB-/	4a\	.	.
4F\	2a\	.	.
2F\	.	.	.
.	4b-\	.	.
=14-	=14-	=14-	=14-
4D\	4g/	.	.
4E-X\	4a\	.	.
4C/	2f#X/	.	.
4D\	.	.	.
!LO:N:acc=#	!	!	!
4BBn/	4g/	.	.
2C/	2e/	.	.
4AA/	4f#/	.	.
=15	=15	=15	=15
2BB-/	2d/	0r	0r
4AA/	2.g/	.	.
4GG/	.	.	.
2C/	.	.	.
.	4f/	.	.
2FF/	2.f/	.	.
=16-	=16-	=16-	=16-
1C	.	1r	1r
.	8e/	.	.
.	8d/	.	.
.	2e/	.	.
1FF	1f	2r	2r
.	.	[<2F\	[<2cc\
=17	=17	=17	=17
0r	0r	2F\]	2cc\]
.	.	2D/	2dd\
.	.	2E-X\	4b-\
.	.	.	4g/
.	.	2C/	4cc\
.	.	.	2cc\
=18-	=18-	=18-	=18-
1r	1r	1G	.
!	!	!	!LO:N:acc=#
.	.	.	8bn\
.	.	.	8a\
.	.	.	2b\
*custos:C	*custos:cc	*custos:C	*custos:cc
!!LO:LB:g=original
2r	2r	2C/	2cc\
[<2C/	[<2cc\	4C/	[<2ee\
.	.	4D/	.
=19	=19	=19	=19
2C/]	2cc\]	4E\	2ee\]
.	.	4C/	.
2AA/	2cc\	2F\	2ff\
2BB-/	2b-\	2F\	2dd\
2FF/	2a\	2F\	2cc\
=20-	=20-	=20-	=20-
1C	1g	1C	1cc
1FF	1a	2F\	2cc\
.	.	2F\	2ff\
=21	=21	=21	=21
0r	0r	4C/	4ee\
.	.	4.D/	4.dd\
.	.	8D/	8dd\
.	.	4AA/	4cc\
.	.	2BB-/	2b-\
.	.	2GG/	2b-\
=22-	=22-	=22-	=22-
2r	2r	1D	1a
2D/	2dd\	.	.
4AA/	4cc\	1r	1r
4.BB-/	4.b-\	.	.
8BB-/	8b-\	.	.
4GG/	4b-\	.	.
=23	=23	=23	=23
2E\	2b-\	1r	1r
2C/	2cc\	.	.
2.BB-/	2dd\	2r	2r
.	2dd\	2F\	2ff\
4BB-/	.	.	.
=24-	=24-	=24-	=24-
4C/	4cc\	4C/	4ee\
4.GG/	4.b-\	4.D/	4.dd\
8GG/	8b-\	8D/	8dd\
4DD/	2cc\	4C/	4ee-X\
2GG/	.	2D/	2dd\
!	!LO:N:acc=#	!	!
.	8bn\	.	.
.	8a\	.	.
2GG/	2b\	2GG/	2dd\
=25	=25	=25	=25
2CC/	2cc\	1C	1cc
2.C/	2.cc\	.	.
.	.	0r	0r
4AA/	4cc\	.	.
2BB-/	2b-\	.	.
=26-	=26-	=26-	=26-
1FF	1a	.	.
1C	1g	2r	2r
.	.	[y2c\	[y2ee\
=27	=27	=27	=27
!	!	!LO:N:xstem:cue	!LO:N:xstem:cue
0r	0r	4c]	4ee\]
.	.	4c\	4ee\
.	.	2B-\	2dd\
.	.	1A	1cc
=28-	=28-	=28-	=28-
!	!	!	!LO:TX:t=P:problem:♯ above
!	!	!	!LO:N:acc=#
2r	2r	2G\	2bn\
2GG/	2dd\	(2G\	2cc\
4D/	4dd\	4F\)	4ff\
4.AA/	4.cc\	4.A\	4.ee\
8AA/	8cc\	8A\	8ee\
4BB-/	4b-\	4D/	4dd\
=29	=29	=29	=29
2FF/	2a\	4.F\	2cc\
.	.	8F\	.
2GG/	2g/	2BB-/	2b-\
2D/	2f#X/	2r	2a\
2.D/	2.a\	2.F\	2.dd\
=30-	=30-	=30-	=30-
4BB-/	4b-\	4F\	4dd\
2C/	2g/	2C/	4cc\
.	.	.	2cc\
1GG	1g	1D	.
!	!	!	!LO:TX:t=P:problem:♯ above
!	!	!	!LO:N:acc=#
.	.	.	8bn\
.	.	.	8a\
!	!	!	!LO:SIC:v:t=błędna wysokość custos
.	.	.	2b\
*custos:CC	*custos:g	*custos:C	*custos:a
!!LO:LB:g=original
=31	=31	=31	=31
1CC	1g	1C	1cc
2r	2r	2r	2r
2.GG/	2.b-\	2.BB-/	2.dd\
=32-	=32-	=32-	=32-
4BB-/	4b-\	4C/	4dd\
2FF/	2a\	2C/	4cc\
.	.	.	4dd\
[>1CC	[>1cc	[>1C	4ee\
.	.	.	4cc\
.	.	.	4ff\
.	.	.	4ff\
=33	=33	=33	=33
1CC]	1cc]	1C]	4ee\
.	.	.	8ee\
.	.	.	8dd\
.	.	.	2ee\
1FF	1cc	1C	1ff
=34-	=34-	=34-	=34-
*M3/2	*M3/2	*M3/2	*M3/2
00.r	00.r	1F	1cc
.	.	1F	1a
.	.	1F	1f
=35-	=35-	=35-	=35-
.	.	0FF	0cc
.	.	1FF	1a
=36	=36	=36	=36
1F	1cc	00.r	00.r
1F	1a	.	.
1F	1f	.	.
=37-	=37-	=37-	=37-
0FF	0cc	.	.
1FF	1a	.	.
=38-	=38-	=38-	=38-
00.r	00.r	1F	1cc
.	.	1D	1ff
.	.	1BB-	1dd
=39-	=39-	=39-	=39-
.	.	0F	0cc
.	.	1C	1cc
=40	=40	=40	=40
1C	1g	00.r	00.r
1AA	1cc	.	.
1FF	1a	.	.
=41-	=41-	=41-	=41-
0C	0g	.	.
1GG	1b-	.	.
=42-	=42-	=42-	=42-
0D	0a	00.r	00.r
1BB-	1dd	.	.
=43-	=43-	=43-	=43-
0.E-X	1.b-	.	.
.	2a\	.	.
.	1g	.	.
=44	=44	=44	=44
1C	0cc	00.r	00.r
0GG	.	.	.
!	!LO:N:acc=#	!	!
.	1bn	.	.
=45-	=45-	=45-	=45-
0.C	0.cc	.	.
=46-	=46-	=46-	=46-
00.r	00.r	1F	1cc
.	.	1D	1ff
.	.	1BB-	1dd
=47-	=47-	=47-	=47-
.	.	0F	0cc
.	.	1C	1cc
=48	=48	=48	=48
00.r	00.r	1D	1a
.	.	1BB-	1dd
.	.	1GG	1b-
=49-	=49-	=49-	=49-
.	.	0C	0g
.	.	1FF	1a
=50-	=50-	=50-	=50-
00.r	00.r	0F	0a
.	.	1D	1cc
=51-	=51-	=51-	=51-
.	.	1.G	1.b-
.	.	2F\	2a\
.	.	1E-X	1g
*custos:C	*custos:cc	*custos:C	*custos:cc
!!LO:PB:g=original
=52	=52	=52	=52
00.r	00.r	1C	0cc
.	.	0G	.
!	!	!	!LO:N:acc=#
.	.	.	1bn
=53-	=53-	=53-	=53-
.	.	0.C	0.cc
=54-	=54-	=54-	=54-
1C	1cc	1C	1cc
1AA	1cc	1C	1ee
1FF	1cc	1C	1ff
=55-	=55-	=55-	=55-
0C	0cc	0C	0ee
1GG	1b-	1D	1dd
=56	=56	=56	=56
1BB-	1dd	1BB-	1cc
1GG	1cc	1C	1ff
1CC	0cc	1C	1ee
=57-	=57-	=57-	=57-
0GG	.	0D	0dd
!	!LO:N:acc=#	!	!
.	1bn	.	.
1CC	1cc	1C	1ee
=58-	=58-	=58-	=58-
00.r	00.r	0F	0cc
.	.	1D	1ff
=59-	=59-	=59-	=59-
.	.	0.G	0.dd
=60	=60	=60	=60
00.r	00.r	1E	1ee
.	.	0D	0ff
=61-	=61-	=61-	=61-
.	.	0.C	0.ee
=62-	=62-	=62-	=62-
*M2/1	*M2/1	*M2/1	*M2/1
*met(C|)	*met(C|)	*met(C|)	*met(C|)
2r	2r	2r	2r
1C	1cc	4C/	1ee
.	.	4D/	.
.	.	4E\	.
.	.	4C/	.
2AA/	2cc\	2F\	2ff\
=63	=63	=63	=63
2BB-/	2b-\	2F\	2dd\
2FF/	2a\	2F\	2cc\
1C	1g	1C	1cc
=64-	=64-	=64-	=64-
1FF	1a	2F\	2cc\
.	.	2F\	2ff\
1r	1r	4C/	4ee\
.	.	4.D/	4.dd\
.	.	8D/	8cc\
.	.	4AA/	4b-\
=65	=65	=65	=65
1r	1r	2BB-/	2b-\
.	.	2GG/	2b-\
2r	2r	1D	1a
2D\	2dd\	.	.
=66-	=66-	=66-	=66-
4AA/	4cc\	0r	0r
4.BB-/	4.b-\	.	.
8BB-/	8b-\	.	.
4GG/	4b-\	.	.
2E-X\	2b-\	.	.
2C/	2cc\	.	.
=67	=67	=67	=67
2.BB-/	2dd\	2r	2r
.	2dd\	2F\	2ff\
4BB-/	.	.	.
4C/	4cc\	4C/	4ee\
!	!LO:N:acc=#	!	!
4.GG/	4.bn\	4.D/	4.dd\
8GG/	8b\	8D/	8dd\
4CC/	2cc\	4C/	4ee-X\
=68-	=68-	=68-	=68-
2GG/	.	2D/	2dd\
!	!LO:N:acc=#	!	!
.	8bn\	.	.
.	8a\	.	.
2GG/	2b\	2GG/	2dd\
2CC/	2cc\	1C	1cc
[y2C/	[y2cc\	.	.
=69	=69	=69	=69
!LO:N:xstem:cue	!LO:N:xstem:cue	!	!
4C/]	4cc\]	0r	0r
4AA/	4cc\	.	.
2BB-/	2b-\	.	.
1FF	1a	.	.
=70-	=70-	=70-	=70-
!	!	!LO:TX:t=P:problem:brak pauzy 2r	!
1C	1g	2ryy	2r
.	.	2.c\	2.ee\
1r	1r	.	.
.	.	4c\	4ee\
.	.	2B-\	2dd\
=71	=71	=71	=71
1r	1r	1A	1cc
!	!	!	!LO:N:acc=#
2r	2r	2G\	2bn\
2GG/	2dd\	2G\	2dd\
=72-	=72-	=72-	=72-
4D/	4dd\	4F\	4ff\
4.AA/	4.cc\	4.A\	4.ee\
8AA/	8cc\	8A\	8ee\
4BB-/	4b-\	4D\	4dd\
2FF/	2a\	4.F\	2cc\
.	.	8F\	.
2GG/	2g/	2BB-/	2b-y\
=73	=73	=73	=73
2D/	2f#X/	2r	2a\
2.D/	2.a\	2.F\	2.dd\
4BB-/	4b-\	4F\	4dd\
2C/	2g/	2C/	4cc\
.	.	.	2cc\
=74-	=74-	=74-	=74-
1GG	1g	1D	.
!	!	!	!LO:N:acc=#
.	.	.	8bn\
.	.	.	8a\
.	.	.	2b\
1CC	1g	1C	1cc
=75	=75	=75	=75
2r	2r	2r	2r
2.GG/	2.b-\	2.BB-/	2.dd\
4BB-/	4b-\	4BB-/	4dd\
2FF/	2a\	2C/	4cc\
.	.	.	4dd\
=76-	=76-	=76-	=76-
0CC	0cc	0C	4ee\
.	.	.	4cc\
.	.	.	4ff\
.	.	.	2ff\
.	.	.	8ee\
.	.	.	8dd\
.	.	.	2ee\
=77-	=77-	=77-	=77-
0FFl	0ccl	0Cl	0ffl
==	==	==	==
*-	*-	*-	*-
!!!system-decoration: *
!!!RDF**kern: > = above
!!!RDF**kern: < = below
!!!RDF**kern: l = terminal long
!!!AIN: 4 organ
!!!ENC: Andrzej Gręziak
!!!END: 2021-12-08
!!!ENC: Andrzej Kubiczek
!!!END: 2021-12-18
